public/logo.svg

<svg width="180" height="15" viewBox="0 0 180 15" fill="none" xmlns="http://www.w3.org/2000/svg">
<path d="M4.42295 14H0.222949L5.74595 0.875H11.9199L12.8439 14H8.62295L8.53895 11.921H5.24195L4.42295 14ZM8.01395 4.907L6.54395 8.582H8.22395V4.907H8.01395ZM14.2378 14L16.5478 0.875H22.1338C23.9398 0.875 25.2208 1.197 25.9768 1.841C26.7468 2.471 27.1318 3.5 27.1318 4.928C27.1318 5.656 27.0478 6.496 26.8798 7.448C26.4598 9.8 25.7388 11.48 24.7168 12.488C23.7088 13.496 22.0778 14 19.8238 14H14.2378ZM21.5878 4.235H19.9288L18.8158 10.64H20.4748C21.0208 10.64 21.4268 10.577 21.6928 10.451C21.9588 10.311 22.1338 10.003 22.2178 9.527L22.9528 5.348C22.9668 5.264 22.9738 5.152 22.9738 5.012C22.9738 4.69 22.8618 4.48 22.6378 4.382C22.4138 4.284 22.0638 4.235 21.5878 4.235ZM27.395 13.769L28.571 10.304C29.747 10.626 30.825 10.787 31.805 10.787C32.785 10.787 33.576 10.745 34.178 10.661L34.346 9.611L32.603 9.443C31.273 9.317 30.328 9.016 29.768 8.54C29.222 8.064 28.949 7.392 28.949 6.524C28.949 6.146 28.991 5.726 29.075 5.264C29.397 3.472 29.978 2.24 30.818 1.568C31.672 0.895999 32.988 0.559999 34.766 0.559999C36.544 0.559999 38.112 0.734999 39.47 1.085L38.378 4.445C37.16 4.235 36.18 4.13 35.438 4.13C34.696 4.13 34.066 4.165 33.548 4.235L33.38 5.264L34.787 5.411C36.215 5.565 37.23 5.908 37.832 6.44C38.434 6.958 38.735 7.658 38.735 8.54C38.735 9.436 38.539 10.36 38.147 11.312C37.951 11.802 37.734 12.215 37.496 12.551C37.272 12.873 36.978 13.153 36.614 13.391C36.264 13.615 35.942 13.79 35.648 13.916C35.354 14.028 34.983 14.112 34.535 14.168C33.877 14.266 33.072 14.315 32.12 14.315C30.384 14.315 28.809 14.133 27.395 13.769ZM54.5772 4.235H51.6792L49.9782 14H45.9882L47.6892 4.235H44.8122L45.4212 0.875H55.1862L54.5772 4.235ZM61.5492 14L62.3472 9.359H59.3442L58.5462 14H54.5562L56.8662 0.875H60.8562L60.0372 5.516H63.0402L63.8592 0.875H67.8492L65.5392 14H61.5492ZM71.1964 14H66.9964L72.5194 0.875H78.6934L79.6174 14H75.3964L75.3124 11.921H72.0154L71.1964 14ZM74.7874 4.907L73.3174 8.582H74.9974V4.907H74.7874ZM90.794 4.235H87.896L86.195 14H82.205L83.906 4.235H81.029L81.638 0.875H91.403L90.794 4.235ZM104.007 10.241L103.671 13.769C102.775 14.133 101.641 14.315 100.269 14.315C98.5051 14.315 97.2381 13.972 96.4681 13.286C95.7121 12.6 95.3341 11.543 95.3341 10.115C95.3341 9.513 95.4321 8.624 95.6281 7.448C96.0481 5.04 96.7691 3.29 97.7911 2.198C98.8271 1.106 100.458 0.559999 102.684 0.559999C103.202 0.559999 103.79 0.615999 104.448 0.727999C105.12 0.826 105.61 0.952 105.918 1.106L104.742 4.319C103.916 4.123 103.139 4.025 102.411 4.025C101.697 4.025 101.186 4.095 100.878 4.235C100.57 4.375 100.381 4.655 100.311 5.075L99.3451 10.577C99.8491 10.689 100.367 10.745 100.899 10.745C102.033 10.745 103.069 10.577 104.007 10.241ZM110.706 5.264L109.74 10.724H111.399C111.945 10.724 112.351 10.661 112.617 10.535C112.883 10.395 113.058 10.087 113.142 9.611L114.108 4.151H112.428C111.896 4.151 111.497 4.221 111.231 4.361C110.965 4.487 110.79 4.788 110.706 5.264ZM113.121 0.559999C114.899 0.559999 116.166 0.909999 116.922 1.61C117.678 2.296 118.056 3.36 118.056 4.802C118.056 6.244 117.825 7.756 117.363 9.338C116.915 10.906 116.194 12.131 115.2 13.013C114.22 13.881 112.778 14.315 110.874 14.315C108.984 14.315 107.661 13.972 106.905 13.286C106.149 12.586 105.771 11.515 105.771 10.073C105.771 9.387 105.869 8.484 106.065 7.364C106.261 6.23 106.52 5.257 106.842 4.445C107.164 3.619 107.598 2.905 108.144 2.303C109.194 1.141 110.853 0.559999 113.121 0.559999ZM126.034 14L123.892 9.338C123.836 9.24 123.808 9.107 123.808 8.939C123.808 8.757 123.822 8.554 123.85 8.33H123.682L122.695 14H118.705L121.015 0.875H124.774L126.916 5.537C126.958 5.635 126.979 5.775 126.979 5.957C126.979 6.125 126.965 6.321 126.937 6.545H127.105L128.113 0.875H132.103L129.793 14H126.034ZM141.348 0.875H145.569L140.172 14H134.334L133.557 0.875H137.988V9.212H138.177L141.348 0.875ZM153.529 9.044H149.539L149.266 10.64H154.159L153.571 14H144.688L146.998 0.875H155.776L154.684 4.235H150.379L150.085 5.999H154.075L153.529 9.044ZM166.702 14H162.313L161.347 10.094H160.486L159.814 14H155.824L158.134 0.875H164.434C166.828 0.875 168.025 1.946 168.025 4.088C168.025 4.97 167.892 5.81 167.626 6.608C167.136 8.12 166.366 9.128 165.316 9.632L166.702 14ZM161.515 4.235L161.053 6.86H161.977C162.453 6.86 162.81 6.811 163.048 6.713C163.3 6.601 163.468 6.3 163.552 5.81C163.65 5.306 163.699 4.998 163.699 4.886C163.699 4.606 163.587 4.431 163.363 4.361C163.153 4.277 162.803 4.235 162.313 4.235H161.515ZM178.916 4.235H176.018L174.317 14H170.327L172.028 4.235H169.151L169.76 0.875H179.525L178.916 4.235Z" fill="#00162A"/>
</svg>

<svg xmlns="http://www.w3.org/2000/svg" width="180" height="15" fill="none" viewBox="0 0 180 15"><path fill="#00162a" d="M4.423 14h-4.2L5.746.875h6.174L12.844 14H8.623l-.084-2.079H5.242zm3.59-9.093-1.47 3.675h1.681V4.907zM14.239 14 16.548.875h5.586q2.709 0 3.843.966 1.155.945 1.155 3.087 0 1.092-.252 2.52-.63 3.528-2.163 5.04Q23.204 14 19.824 14zm7.35-9.765h-1.66l-1.112 6.405h1.659q.819 0 1.218-.189.398-.21.525-.924l.735-4.179q.02-.126.02-.336 0-.483-.335-.63-.336-.147-1.05-.147m5.807 9.534 1.176-3.465q1.764.483 3.234.483t2.373-.126l.168-1.05-1.743-.168q-1.995-.189-2.835-.903-.819-.714-.819-2.016 0-.567.126-1.26.483-2.688 1.743-3.696Q32.099.56 34.766.56t4.704.525l-1.092 3.36q-1.827-.315-2.94-.315t-1.89.105l-.168 1.029 1.407.147q2.142.231 3.045 1.029.903.777.903 2.1 0 1.344-.588 2.772-.294.735-.651 1.239a3.2 3.2 0 0 1-.882.84 7 7 0 0 1-.966.525 5 5 0 0 1-1.113.252q-.987.147-2.415.147-2.604 0-4.725-.546m27.182-9.534H51.68L49.98 14h-3.99l1.7-9.765h-2.877l.61-3.36h9.764zM61.55 14l.798-4.641h-3.003L58.546 14h-3.99L56.866.875h3.99l-.819 4.641h3.003l.82-4.641h3.99L65.54 14zm9.647 0h-4.2L72.52.875h6.174L79.617 14h-4.22l-.085-2.079h-3.297zm3.591-9.093-1.47 3.675h1.68V4.907zm16.007-.672h-2.898L86.195 14h-3.99l1.701-9.765h-2.877l.609-3.36h9.765zm13.213 6.006-.336 3.528q-1.344.546-3.402.546-2.645 0-3.8-1.029-1.135-1.029-1.135-3.171 0-.903.294-2.667.63-3.612 2.163-5.25Q99.345.56 102.684.56q.777 0 1.764.168 1.008.147 1.47.378l-1.176 3.213a10 10 0 0 0-2.331-.294q-1.071 0-1.533.21t-.567.84l-.966 5.502a7 7 0 0 0 1.554.168q1.701 0 3.108-.504m6.699-4.977-.966 5.46h1.659q.819 0 1.218-.189.399-.21.525-.924l.966-5.46h-1.68q-.798 0-1.197.21-.399.189-.525.903M113.121.56q2.667 0 3.801 1.05 1.134 1.029 1.134 3.192t-.693 4.536q-.672 2.352-2.163 3.675-1.47 1.302-4.326 1.302-2.835 0-3.969-1.029-1.134-1.05-1.134-3.213 0-1.029.294-2.709.294-1.701.777-2.919a6.9 6.9 0 0 1 1.302-2.142Q109.719.56 113.121.56M126.034 14l-2.142-4.662a.8.8 0 0 1-.084-.399q0-.273.042-.609h-.168l-.987 5.67h-3.99l2.31-13.125h3.759l2.142 4.662q.063.147.063.42 0 .252-.042.588h.168l1.008-5.67h3.99L129.793 14zM141.348.875h4.221L140.172 14h-5.838L133.557.875h4.431v8.337h.189zm12.181 8.169h-3.99l-.273 1.596h4.893l-.588 3.36h-8.883l2.31-13.125h8.778l-1.092 3.36h-4.305l-.294 1.764h3.99zM166.702 14h-4.389l-.966-3.906h-.861L159.814 14h-3.99l2.31-13.125h6.3q3.591 0 3.591 3.213 0 1.323-.399 2.52-.735 2.268-2.31 3.024zm-5.187-9.765-.462 2.625h.924q.714 0 1.071-.147.378-.168.504-.903.147-.756.147-.924 0-.42-.336-.525-.315-.126-1.05-.126zm17.401 0h-2.898L174.317 14h-3.99l1.701-9.765h-2.877l.609-3.36h9.765z"/></svg>
